X:103
M:2/4
L:1/8
K:G
g2 d2|e c2 e|d B2 c|BAGF|G2 [G,2G2]::g g2 d|g g2 d|g b2 g|g b2 g|g g2 d|g g2 d|
edcB|B2 A2|g g2 d|g g2 d|g b2 g|g b2 g|gded|gded|BAGF|G2 [G,2G2]:|

